assets/img/braze_icons/rocket-01.svg

<svg fill="none" height="24" viewBox="0 0 24 24" width="24" xmlns="http://www.w3.org/2000/svg"><g fill="#801ed7"><path d="m13.4654 4.37177c1.1624.77127 2.2814 1.6818 3.3285 2.72888 1.0531 1.05306 1.968 2.17895 2.7421 3.34845l.2091.3339c.249.3978.3736.5967.4041.8042.0269.1829.0025.3698-.0704.5397-.0827.1927-.2541.353-.5968.6736l-2.3059 2.1572.6489 1.9467.022.0654c.0808.2397.1824.5411.1871.8579.0039.274-.0484.5459-.1539.7988-.1219.2924-.3283.5345-.4923.7271l-.0447.0525-1.5619 1.8458c-.2679.3167-.5117.605-.7298.8194-.2221.2185-.5315.4794-.9543.5841-.548.1356-1.1279.0333-1.5964-.2817-.3615-.243-.5629-.5941-.6968-.8753-.1315-.2761-.262-.6305-.4054-1.0197l-.3257-.8841c-1.49711.3321-3.10051.0486-4.40945-.844l-2.45647 2.4565c-.39052.3905-1.02369.3905-1.41421 0-.39053-.3905-.39053-1.0237 0-1.4142l2.44229-2.4423c-.94377-1.3256-1.24924-2.9699-.90927-4.5028l-.88391-.3256c-.38928-.1434-.74356-.2739-1.0197-.4054-.28123-.134-.63229-.3353-.87533-.6968-.315-.4686-.4173-1.0484-.28165-1.59645.10465-.42283.3656-.73221.58402-.95429.21444-.21805.50267-.4619.81935-.72982l1.84591-1.56192.05253-.04466c.19251-.16406.43465-.37041.72704-.49233.25292-.10546.52482-.15782.79882-.15384.31676.00461.61822.10627.85789.1871l.06536.02196 1.94648.64882 2.171-2.32077c.3312-.35397.4967-.53095.6953-.61372.1751-.07295.3672-.09464.5541-.06252.212.03644.4129.17208.8146.44336l.261.17631z"/><path d="m14.5746 2.70755c-.298-.20128-.2264-.64698.1259-.7193.9459-.19419 1.9347-.27944 2.8714-.43555.7068-.11782 1.303-.2172 1.7881-.25382.5002-.03775 1.0117-.02218 1.4998.18721.7075.30342 1.2712.86714 1.5746 1.57454.2094.48819.2249.99967.1872 1.49981-.0366.48514-.136 1.0813-.2538 1.78813-.1584.95021-.239 1.9612-.4422 2.92192-.0732.34623-.5133.40658-.7011.10664-.8393-1.34037-1.9005-2.57487-3.0164-3.69069-1.1398-1.13988-2.361-2.13423-3.6335-2.97889z"/></g></svg>

<svg width="24" height="24" viewBox="0 0 24 24" fill="none" xmlns="http://www.w3.org/2000/svg">
<path d="M13.4654 4.37177C14.6278 5.14304 15.7468 6.05357 16.7939 7.10065C17.847 8.15371 18.7619 9.2796 19.536 10.4491L19.7451 10.783C19.9941 11.1808 20.1187 11.3797 20.1492 11.5872C20.1761 11.7701 20.1517 11.957 20.0788 12.1269C19.9961 12.3196 19.8247 12.4799 19.482 12.8005L17.1761 14.9577L17.825 16.9044L17.847 16.9698C17.9278 17.2095 18.0294 17.5109 18.0341 17.8277C18.038 18.1017 17.9857 18.3736 17.8802 18.6265C17.7583 18.9189 17.5519 19.161 17.3879 19.3536L17.3432 19.4061L15.7813 21.2519C15.5134 21.5686 15.2696 21.8569 15.0515 22.0713C14.8294 22.2898 14.52 22.5507 14.0972 22.6554C13.5492 22.791 12.9693 22.6887 12.5008 22.3737C12.1393 22.1307 11.9379 21.7796 11.804 21.4984C11.6725 21.2223 11.542 20.8679 11.3986 20.4787L11.0729 19.5946C9.57579 19.9267 7.97239 19.6432 6.66345 18.7506L4.20698 21.2071C3.81646 21.5976 3.18329 21.5976 2.79277 21.2071C2.40224 20.8166 2.40224 20.1834 2.79277 19.7929L5.23506 17.3506C4.29129 16.025 3.98582 14.3807 4.32579 12.8478L3.44188 12.5222C3.0526 12.3788 2.69832 12.2483 2.42218 12.1168C2.14095 11.9828 1.78989 11.7815 1.54685 11.42C1.23185 10.9514 1.12955 10.3716 1.2652 9.82355C1.36985 9.40072 1.6308 9.09134 1.84922 8.86926C2.06366 8.65121 2.35189 8.40736 2.66857 8.13944L4.51448 6.57752L4.56701 6.53286C4.75952 6.3688 5.00166 6.16245 5.29405 6.04053C5.54697 5.93507 5.81887 5.88271 6.09287 5.88669C6.40963 5.8913 6.71109 5.99296 6.95076 6.07379L7.01612 6.09575L8.9626 6.74457L11.1336 4.4238C11.4648 4.06983 11.6303 3.89285 11.8289 3.81008C12.004 3.73713 12.1961 3.71544 12.383 3.74756C12.595 3.784 12.7959 3.91964 13.1976 4.19092L13.4586 4.36723L13.4654 4.37177Z" fill="#801ED7"/>
<path d="M14.5746 2.70755C14.2766 2.50627 14.3482 2.06057 14.7005 1.98825C15.6464 1.79406 16.6352 1.70881 17.5719 1.5527C18.2787 1.43488 18.8749 1.3355 19.36 1.29888C19.8602 1.26113 20.3717 1.2767 20.8598 1.48609C21.5673 1.78951 22.131 2.35323 22.4344 3.06063C22.6438 3.54882 22.6593 4.0603 22.6216 4.56044C22.585 5.04558 22.4856 5.64174 22.3678 6.34857C22.2094 7.29878 22.1288 8.30977 21.9256 9.27049C21.8524 9.61672 21.4123 9.67707 21.2245 9.37713C20.3852 8.03676 19.324 6.80226 18.2081 5.68644C17.0683 4.54656 15.8471 3.55221 14.5746 2.70755Z" fill="#801ED7"/>
</svg>
